_includes/icons/color-meditation.svg

<svg fill="#666" height="50" viewBox="0 0 48 48" width="50" xmlns="http://www.w3.org/2000/svg"><path d="m36.664063 36.503906-5.664063-3.503906v-3.445312l3.257813 1.304687c.238281.09375.492187.140625.742187.140625.53125 0 1.054688-.214844 1.441406-.613281.5625-.585938.714844-1.453125.386719-2.199219l-4-9c-.152344-.34375-.402344-.640625-.71875-.851562-.140625-.097657-3.554687-2.335938-8.109375-2.335938-4.554687 0-7.96875 2.238281-8.109375 2.335938-.316406.210937-.5625.507812-.71875.851562l-4 9c-.328125.746094-.175781 1.613281.386719 2.199219.566406.585937 1.429687.769531 2.183594.472656l3.257812-1.304687v3.445312l-5.664062 3.503906c-1.101563.734375-1.589844 2.101563-1.207032 3.363282.382813 1.269531 1.550782 2.132812 2.871094 2.132812h22c1.320313 0 2.488281-.863281 2.871094-2.132812.382812-1.261719-.105469-2.628907-1.207031-3.363282z" fill="#ff754c"/><g fill="#e64a19"><path d="m21.5 37h9.5s-6.855469-2-9.5-2-4.5 2.019531-4.5 4.5c0 .925781.28125 1.785156.761719 2.5h3.738281c-1.375 0-2.5-1.125-2.5-2.5s1.125-2.5 2.5-2.5z"/><path d="m31 33v-3.445312l-6.742187-2.695313c-.089844-.039062-.175782-.078125-.257813-.125-.082031.046875-.167969.085938-.257812.125l-6.742188 2.695313v3.445312l7-4.09375z"/><path d="m25.742188 23.144531 5.257812 1.855469-1.164062-2.621094-3.355469-1.097656c-.476563-.1875-.972656-.28125-1.480469-.28125-.339844 0-.675781.042969-1 .125-.324219-.082031-.660156-.125-1-.125-.507812 0-1.007812.097656-1.484375.285156l-3.351562 1.09375-1.164063 2.621094 5.257813-1.855469c.136718-.054687.277343-.089843.417968-.113281.042969-.007812.085938-.007812.128907-.011719.0625-.007812.128906-.019531.195312-.019531.023438 0 .046875.007813.070313.007813.113281.003906.21875.023437.328125.046875.050781.007812.105468.011718.152343.027343.15625.046875.308594.105469.449219.1875.300781-.175781.648438-.269531 1-.269531.246094 0 .5.046875.742188.144531z"/></g><path d="m24 7c2.210938 0 4 1.789063 4 4 0 2.210938-1.789062 4-4 4-2.210937 0-4-1.789062-4-4 0-2.210937 1.789063-4 4-4m5 30h-7.5c-1.375 0-2.5 1.125-2.5 2.5s1.125 2.5 2.5 2.5h7.5zm-3.257812-13.855469c-.242188-.097656-.496094-.144531-.742188-.144531-.351562 0-.699219.09375-1 .269531-.140625-.082031-.292969-.140625-.449219-.1875-.046875-.015625-.101562-.019531-.148437-.027343-.109375-.023438-.21875-.042969-.332031-.046875-.023438 0-.046875-.007813-.070313-.007813-.066406 0-.132812.011719-.195312.019531-.042969.003907-.085938.003907-.128907.011719-.140625.023438-.28125.058594-.417968.113281l-5.257813 1.855469v4.554688l6.742188-2.695313c.089843-.039062.175781-.078125.257812-.125.082031.046875.167969.085938.257813.125l6.742187 2.695313v-4.554688z" fill="#ffb74d"/></svg>

<svg xmlns="http://www.w3.org/2000/svg" viewBox="0 0 48 48" width="50" height="50" fill="#666"><path d="M 36.664063 36.503906 L 31 33 L 31 29.554688 L 34.257813 30.859375 C 34.496094 30.953125 34.75 31 35 31 C 35.53125 31 36.054688 30.785156 36.441406 30.386719 C 37.003906 29.800781 37.15625 28.933594 36.828125 28.1875 L 32.828125 19.1875 C 32.675781 18.84375 32.425781 18.546875 32.109375 18.335938 C 31.96875 18.238281 28.554688 16 24 16 C 19.445313 16 16.03125 18.238281 15.890625 18.335938 C 15.574219 18.546875 15.328125 18.84375 15.171875 19.1875 L 11.171875 28.1875 C 10.84375 28.933594 10.996094 29.800781 11.558594 30.386719 C 12.125 30.972656 12.988281 31.15625 13.742188 30.859375 L 17 29.554688 L 17 33 L 11.335938 36.503906 C 10.234375 37.238281 9.746094 38.605469 10.128906 39.867188 C 10.511719 41.136719 11.679688 42 13 42 L 35 42 C 36.320313 42 37.488281 41.136719 37.871094 39.867188 C 38.253906 38.605469 37.765625 37.238281 36.664063 36.503906 Z" fill="#ff754c"/><path d="M 21.5 37 L 31 37 C 31 37 24.144531 35 21.5 35 C 18.855469 35 17 37.019531 17 39.5 C 17 40.425781 17.28125 41.285156 17.761719 42 L 21.5 42 C 20.125 42 19 40.875 19 39.5 C 19 38.125 20.125 37 21.5 37 Z" fill="#e64a19"/><path d="M 31 33 L 31 29.554688 L 24.257813 26.859375 C 24.167969 26.820313 24.082031 26.78125 24 26.734375 C 23.917969 26.78125 23.832031 26.820313 23.742188 26.859375 L 17 29.554688 L 17 33 L 24 28.90625 Z" fill="#e64a19"/><path d="M 25.742188 23.144531 L 31 25 L 29.835938 22.378906 L 26.480469 21.28125 C 26.003906 21.09375 25.507813 21 25 21 C 24.660156 21 24.324219 21.042969 24 21.125 C 23.675781 21.042969 23.339844 21 23 21 C 22.492188 21 21.992188 21.097656 21.515625 21.285156 L 18.164063 22.378906 L 17 25 L 22.257813 23.144531 C 22.394531 23.089844 22.535156 23.054688 22.675781 23.03125 C 22.71875 23.023438 22.761719 23.023438 22.804688 23.019531 C 22.867188 23.011719 22.933594 23 23 23 C 23.023438 23 23.046875 23.007813 23.070313 23.007813 C 23.183594 23.011719 23.289063 23.03125 23.398438 23.054688 C 23.449219 23.0625 23.503906 23.066406 23.550781 23.082031 C 23.707031 23.128906 23.859375 23.1875 24 23.269531 C 24.300781 23.09375 24.648438 23 25 23 C 25.246094 23 25.5 23.046875 25.742188 23.144531 Z" fill="#e64a19"/><path d="M 24 7 C 26.210938 7 28 8.789063 28 11 C 28 13.210938 26.210938 15 24 15 C 21.789063 15 20 13.210938 20 11 C 20 8.789063 21.789063 7 24 7 M 29 37 L 21.5 37 C 20.125 37 19 38.125 19 39.5 C 19 40.875 20.125 42 21.5 42 L 29 42 Z M 25.742188 23.144531 C 25.5 23.046875 25.246094 23 25 23 C 24.648438 23 24.300781 23.09375 24 23.269531 C 23.859375 23.1875 23.707031 23.128906 23.550781 23.082031 C 23.503906 23.066406 23.449219 23.0625 23.402344 23.054688 C 23.292969 23.03125 23.183594 23.011719 23.070313 23.007813 C 23.046875 23.007813 23.023438 23 23 23 C 22.933594 23 22.867188 23.011719 22.804688 23.019531 C 22.761719 23.023438 22.71875 23.023438 22.675781 23.03125 C 22.535156 23.054688 22.394531 23.089844 22.257813 23.144531 L 17 25 L 17 29.554688 L 23.742188 26.859375 C 23.832031 26.820313 23.917969 26.78125 24 26.734375 C 24.082031 26.78125 24.167969 26.820313 24.257813 26.859375 L 31 29.554688 L 31 25 Z" fill="#ffb74d"/></svg>
